packages/kaspersky-hexa-ui-icons/src/iconsSVGs/24/Dns.svg

<svg width="24" height="24" viewBox="0 0 24 24" fill="none" xmlns="http://www.w3.org/2000/svg">
<path d="M2.83215 8H5.07032C5.85716 6.63979 7.03298 5.53275 8.44568 4.83099C8.3807 4.96122 8.31809 5.09431 8.25783 5.2299C7.89769 6.04022 7.60521 6.9765 7.39324 8H9.4417C9.61538 7.26765 9.83386 6.60826 10.0855 6.04218C10.4134 5.30422 10.7781 4.76892 11.1325 4.43166C11.4817 4.0993 11.7732 4 12.0001 4C12.227 4 12.5184 4.0993 12.8677 4.43166C13.2221 4.76892 13.5867 5.30422 13.9147 6.04218C14.1663 6.60826 14.3848 7.26765 14.5584 8H16.6069C16.3949 6.9765 16.1024 6.04022 15.7423 5.2299C15.682 5.09431 15.6194 4.96122 15.5545 4.83099C16.9671 5.53275 18.143 6.63979 18.9298 8H21.168C19.6249 4.46819 16.1007 2 12.0001 2C7.89943 2 4.37527 4.46819 2.83215 8Z" fill="black"/>
<path d="M21.168 16H18.9298C18.143 17.3602 16.9671 18.4672 15.5545 19.169C15.6194 19.0388 15.682 18.9057 15.7423 18.7701C16.1024 17.9598 16.3949 17.0235 16.6069 16H14.5584C14.3848 16.7324 14.1663 17.3917 13.9147 17.9578C13.5867 18.6958 13.2221 19.2311 12.8677 19.5683C12.5184 19.9007 12.227 20 12.0001 20C11.7732 20 11.4817 19.9007 11.1325 19.5683C10.7781 19.2311 10.4134 18.6958 10.0855 17.9578C9.83386 17.3917 9.61538 16.7324 9.4417 16H7.39324C7.60521 17.0235 7.89769 17.9598 8.25783 18.7701C8.31809 18.9057 8.3807 19.0388 8.44568 19.169C7.03298 18.4672 5.85716 17.3602 5.07032 16H2.83215C4.37527 19.5318 7.89943 22 12.0001 22C16.1007 22 19.6249 19.5318 21.168 16Z" fill="black"/>
<path fill-rule="evenodd" clip-rule="evenodd" d="M3 9C2.58579 9 2.25 9.33579 2.25 9.75V14.25C2.25 14.6642 2.58579 15 3 15H5.25C6.49264 15 7.5 13.9926 7.5 12.75V11.25C7.5 10.0074 6.49264 9 5.25 9H3ZM3.75 13.5V10.5H5.25C5.66421 10.5 6 10.8358 6 11.25V12.75C6 13.1642 5.66421 13.5 5.25 13.5H3.75Z" fill="black"/>
<path d="M9.92333 9.09827C10.2202 8.99078 10.5527 9.08076 10.7548 9.32334L13.1787 12.2319V9.80347C13.1787 9.38926 13.5144 9.05347 13.9287 9.05347C14.3429 9.05347 14.6787 9.38926 14.6787 9.80347V14.3035C14.6787 14.6192 14.4809 14.9012 14.184 15.0087C13.8871 15.1162 13.5546 15.0262 13.3525 14.7836L10.9287 11.875V14.3035C10.9287 14.7177 10.5929 15.0535 10.1787 15.0535C9.76444 15.0535 9.42865 14.7177 9.42865 14.3035V9.80347C9.42865 9.48771 9.62643 9.20577 9.92333 9.09827Z" fill="black"/>
<path d="M18.375 9C17.3395 9 16.5 9.83947 16.5 10.875C16.5 11.9105 17.3395 12.75 18.375 12.75H19.875C20.0821 12.75 20.25 12.9179 20.25 13.125C20.25 13.3321 20.0821 13.5 19.875 13.5H17.25C16.8358 13.5 16.5 13.8358 16.5 14.25C16.5 14.6642 16.8358 15 17.25 15H19.875C20.9105 15 21.75 14.1605 21.75 13.125C21.75 12.0895 20.9105 11.25 19.875 11.25H18.375C18.1679 11.25 18 11.0821 18 10.875C18 10.6679 18.1679 10.5 18.375 10.5H21C21.4142 10.5 21.75 10.1642 21.75 9.75C21.75 9.33579 21.4142 9 21 9H18.375Z" fill="black"/>
</svg>

<svg xmlns="http://www.w3.org/2000/svg" width="24" height="24" fill="none" viewBox="0 0 24 24"><path fill="#000" fill-rule="evenodd" d="M2.8322 8h2.2381a8.036 8.036 0 0 1 3.3754-3.169 10 10 0 0 0-.1879.3989C7.8977 6.0402 7.6052 6.9765 7.3932 8h2.0485c.1737-.7324.3922-1.3917.6438-1.9578.3279-.738.6926-1.2733 1.047-1.6105.3492-.3324.6407-.4317.8676-.4317s.5183.0993.8676.4317c.3544.3372.719.8725 1.047 1.6105.2516.566.4701 1.2254.6437 1.9578h2.0485c-.212-1.0235-.5045-1.9598-.8646-2.7701a10 10 0 0 0-.1878-.3989A8.036 8.036 0 0 1 18.9298 8h2.2382c-1.5431-3.5318-5.0673-6-9.1679-6-4.1007 0-7.6248 2.4682-9.168 6M2.25 9.75A.75.75 0 0 1 3 9h2.25c1.2426 0 2.25 1.0074 2.25 2.25v1.5C7.5 13.9926 6.4926 15 5.25 15H3a.75.75 0 0 1-.75-.75zM18.375 9c-1.0355 0-1.875.8395-1.875 1.875s.8395 1.875 1.875 1.875h1.5a.375.375 0 0 1 0 .75H17.25a.75.75 0 0 0 0 1.5h2.625c1.0355 0 1.875-.8395 1.875-1.875s-.8395-1.875-1.875-1.875h-1.5a.375.375 0 0 1 0-.75H21A.75.75 0 0 0 21 9zm-7.6202.3233a.75.75 0 0 0-1.3261.4802v4.5a.75.75 0 0 0 1.5 0V11.875l2.4238 2.9086a.75.75 0 0 0 1.3262-.4801v-4.5a.75.75 0 0 0-1.5 0v2.4284zM3.75 10.5v3h1.5a.75.75 0 0 0 .75-.75v-1.5a.75.75 0 0 0-.75-.75zM21.168 16h-2.2382a8.036 8.036 0 0 1-3.3753 3.169q.0973-.1954.1878-.3989c.3601-.8103.6526-1.7466.8646-2.7701h-2.0485c-.1736.7324-.3921 1.3917-.6437 1.9578-.328.738-.6926 1.2733-1.047 1.6105-.3493.3324-.6407.4317-.8676.4317s-.5184-.0993-.8676-.4317c-.3544-.3372-.7191-.8725-1.047-1.6105-.2516-.5661-.4701-1.2254-.6438-1.9578H7.3932c.212 1.0235.5045 1.9598.8646 2.7701q.0904.2035.1879.3989A8.036 8.036 0 0 1 5.0703 16H2.8322c1.543 3.5318 5.0672 6 9.1679 6s7.6248-2.4682 9.1679-6"/></svg>
